__todo__/vivaldi-icon.svg

<svg height="256" preserveAspectRatio="xMidYMid" viewBox="0 0 256 256" width="256" xmlns="http://www.w3.org/2000/svg" xmlns:xlink="http://www.w3.org/1999/xlink"><linearGradient id="a" x1="20.984803%" x2="75.846321%" y1="5.131764%" y2="100.365967%"><stop offset="0" stop-opacity=".2"/><stop offset=".79" stop-opacity=".05"/></linearGradient><path d="m127.998933 255.998933c56.091734 0 87.261867 0 107.630934-20.369066 20.369066-20.369067 20.369066-51.5392 20.369066-107.630934 0-56.0908797 0-87.261333-20.369066-107.6301863-20.369067-20.3687467-51.5392-20.3687467-107.630934-20.3687467-56.0908797 0-87.2998397 0-107.6300797 20.3687467-20.33027698 20.3688533-20.3688533 51.5393066-20.3688533 107.6301863 0 56.091734 0 87.261867 20.3688533 107.630934 20.3687467 20.369066 51.5392 20.369066 107.6300797 20.369066z" fill="#ef3939"/><path d="m211.221333 80.6334933c-6.1792-11.14176-16.808533-20.26496-26.814933-28.1528533-10.007467-7.8878933-19.8304-12.6402133-32.1088-16.048-12.2784-3.40768-24.826667-3.34464-37.467733-1.7424-12.64224 1.60224-23.5193603 4.48768-34.5590403 10.8507733-11.03968 6.3630934-19.6141867 14.1541334-27.3354667 24.2888534s-12.8516267 20.1988266-16.0541867 32.5297063c-3.20256 12.33056-4.3630933 25.992427-2.5490133 38.601494 1.8139733 12.610133 4.0171733 24.610133 10.5658667 35.5392l.5399466.9248 45.09088 78.1664c7.4830934.205866 15.5832537.295466 24.3010137.269866h12.805333c20.448.439467 40.9056-.165333 61.291733-1.812266 20.404267-2.2368 35.061334-7.250134 46.285867-18.548267 16.5088-16.5056 19.634133-40.1056 20.212267-78.282667z" fill="url(#a)"/><path d="m195.808 60.0850133c-13.426133-13.4165333-30.528-22.5505066-49.1424-26.2472533-18.615467-3.6967467-37.908267-1.7902933-55.43968 5.4784-17.5319467 7.2686933-32.51584 19.5732267-43.0577067 35.3582933-10.5418666 15.7850667-16.16832 34.3420797-16.16832 53.3244797 0 18.983467 5.6264534 37.540267 16.16832 53.325867 10.5418667 15.784533 25.52576 28.0896 43.0577067 35.357867 17.531413 7.268266 36.824213 9.175466 55.43968 5.4784 18.6144-3.697067 35.716267-12.830934 49.1424-26.247467 8.935467-8.907733 16.0256-19.492267 20.862933-31.146667 4.837334-11.6544 7.328-24.148266 7.328-36.768 0-12.618666-2.490666-25.113173-7.328-36.7673597-4.837333-11.6542933-11.927466-22.23872-20.862933-31.14656zm-5.754667 44.1945597c-15.835733 27.557227-31.6576 55.10176-47.466666 82.633494-1.246934 2.440533-3.105067 4.517333-5.393067 6.026666-2.286933 1.509334-4.926933 2.401067-7.6608 2.587734-3.018667.337066-6.068267-.245334-8.749867-1.672534-2.680533-1.4272-4.868266-3.632-6.274133-6.324266-10.0032-17.229867-19.9290667-34.574934-29.8549333-51.882667-6.07648-10.507733-12.1272534-21.041067-18.15232-31.600213-1.4302934-2.37088-2.2189867-5.073387-2.28864-7.8416003-.0696534-2.7682134.5821866-5.5069867 1.8914133-7.94688 1.3092267-2.4398934 3.2308267-4.4968534 5.5757867-5.9688534 2.34496-1.4718933 5.0325333-2.3079466 7.7984-2.4260266 2.9773866-.1826134 5.944.5008 8.54144 1.9678933 2.5975466 1.4669867 4.71488 3.6548267 6.09632 6.2993067 4.4801066 7.7262933 8.8829863 15.4525863 13.2864003 23.1793063 3.205333 5.562667 6.2944 11.125334 9.5776 16.6112 2.087466 3.790934 5.117866 6.978134 8.798933 9.253334 3.682133 2.274133 7.888 3.557333 12.2112 3.726933 6.5664.4064 13.0368-1.729067 18.0704-5.965867s8.2432-10.247466 8.965333-16.788266c0-1.0432 0-2.0864.231467-2.6272.023467-4.133334-.9024-8.216534-2.702933-11.936854-1.105067-2.049066-1.7472-4.3149863-1.883734-6.638933-.136533-2.32384.237867-4.6493867 1.095467-6.8133333.8576-2.1640534 2.1792-4.1140267 3.869867-5.71328 1.691733-1.5992534 3.712-2.8088534 5.92-3.5442134 2.208-.7352533 4.5504-.9783466 6.862933-.7121066 2.311467.26624 4.5376 1.0353066 6.520533 2.2532266 1.984 1.21792 3.6768 2.8552534 4.96 4.7970134s2.126934 4.1410133 2.4704 6.4433066c.4352 3.7006934-.3808 7.4405337-2.3168 10.6236797z" fill="#fff"/></svg>

<?xml version="1.0" encoding="UTF-8"?>
<svg width="256px" height="256px" viewBox="0 0 256 256" version="1.1" xmlns="http://www.w3.org/2000/svg" xmlns:xlink="http://www.w3.org/1999/xlink" preserveAspectRatio="xMidYMid">
    <defs>
        <linearGradient x1="20.9848027%" y1="5.13176388%" x2="75.8463214%" y2="100.365967%" id="linearGradient-1">
            <stop stop-color="#000000" stop-opacity="0.2" offset="0%"></stop>
            <stop stop-color="#000000" stop-opacity="0.05" offset="79%"></stop>
        </linearGradient>
    </defs>
    <g>
        <path d="M127.998933,255.998933 C184.090667,255.998933 215.2608,255.998933 235.629867,235.629867 C255.998933,215.2608 255.998933,184.090667 255.998933,127.998933 C255.998933,71.9080533 255.998933,40.7376 235.629867,20.3687467 C215.2608,0 184.090667,0 127.998933,0 C71.9080533,0 40.6990933,0 20.3688533,20.3687467 C0.03857632,40.7376 0,71.9080533 0,127.998933 C0,184.090667 0,215.2608 20.3688533,235.629867 C40.7376,255.998933 71.9080533,255.998933 127.998933,255.998933 Z" fill="#EF3939"></path>
        <path d="M211.221333,80.6334933 C205.042133,69.4917333 194.4128,60.3685333 184.4064,52.48064 C174.398933,44.5927467 164.576,39.8404267 152.2976,36.43264 C140.0192,33.02496 127.470933,33.088 114.829867,34.69024 C102.187627,36.29248 91.3105067,39.17792 80.2708267,45.5410133 C69.2311467,51.9041067 60.65664,59.6951467 52.93536,69.8298667 C45.21408,79.9645867 40.0837333,90.0286933 36.8811733,102.359573 C33.6786133,114.690133 32.51808,128.352 34.33216,140.961067 C36.1461333,153.5712 38.3493333,165.5712 44.8980267,176.500267 L45.4379733,177.425067 L90.5288533,255.591467 C98.0119467,255.797333 106.112107,255.886933 114.829867,255.861333 L127.6352,255.861333 C148.0832,256.3008 168.5408,255.696 188.926933,254.049067 C209.3312,251.812267 223.988267,246.798933 235.2128,235.5008 C251.7216,218.9952 254.846933,195.3952 255.425067,157.218133 L211.221333,80.6334933 Z" fill="url(#linearGradient-1)"></path>
        <path d="M195.808,60.0850133 C182.381867,46.66848 165.28,37.5345067 146.6656,33.83776 C128.050133,30.1410133 108.757333,32.0474667 91.22592,39.31616 C73.6939733,46.5848533 58.71008,58.8893867 48.1682133,74.6744533 C37.6263467,90.45952 31.9998933,109.016533 31.9998933,127.998933 C31.9998933,146.9824 37.6263467,165.5392 48.1682133,181.3248 C58.71008,197.109333 73.6939733,209.4144 91.22592,216.682667 C108.757333,223.950933 128.050133,225.858133 146.6656,222.161067 C165.28,218.464 182.381867,209.330133 195.808,195.9136 C204.743467,187.005867 211.8336,176.421333 216.670933,164.766933 C221.508267,153.112533 223.998933,140.618667 223.998933,127.998933 C223.998933,115.380267 221.508267,102.88576 216.670933,91.2315733 C211.8336,79.57728 204.743467,68.9928533 195.808,60.0850133 L195.808,60.0850133 Z M190.053333,104.279573 C174.2176,131.8368 158.395733,159.381333 142.586667,186.913067 C141.339733,189.3536 139.4816,191.4304 137.1936,192.939733 C134.906667,194.449067 132.266667,195.3408 129.5328,195.527467 C126.514133,195.864533 123.464533,195.282133 120.782933,193.854933 C118.1024,192.427733 115.914667,190.222933 114.5088,187.530667 C104.5056,170.3008 94.5797333,152.955733 84.6538667,135.648 C78.5773867,125.140267 72.5266133,114.606933 66.5015467,104.047787 C65.0712533,101.676907 64.28256,98.9744 64.2129067,96.2061867 C64.1432533,93.4379733 64.7950933,90.6992 66.10432,88.2593067 C67.4135467,85.8194133 69.3351467,83.7624533 71.6801067,82.2904533 C74.0250667,80.81856 76.71264,79.9825067 79.4785067,79.8644267 C82.4558933,79.6818133 85.4225067,80.3652267 88.0199467,81.83232 C90.6174933,83.2993067 92.7348267,85.4871467 94.1162667,88.1316267 C98.5963733,95.85792 102.999253,103.584213 107.402667,111.310933 C110.608,116.8736 113.697067,122.436267 116.980267,127.922133 C119.067733,131.713067 122.098133,134.900267 125.7792,137.175467 C129.461333,139.4496 133.6672,140.7328 137.9904,140.9024 C144.5568,141.3088 151.0272,139.173333 156.0608,134.936533 C161.0944,130.699733 164.304,124.689067 165.026133,118.148267 C165.026133,117.105067 165.026133,116.061867 165.2576,115.521067 C165.281067,111.387733 164.3552,107.304533 162.554667,103.584213 C161.4496,101.535147 160.807467,99.2692267 160.670933,96.94528 C160.5344,94.62144 160.9088,92.2958933 161.7664,90.1319467 C162.624,87.9678933 163.9456,86.01792 165.636267,84.4186667 C167.328,82.8194133 169.348267,81.6098133 171.556267,80.8744533 C173.764267,80.1392 176.106667,79.8961067 178.4192,80.1623467 C180.730667,80.4285867 182.9568,81.1976533 184.939733,82.4155733 C186.923733,83.6334933 188.616533,85.2708267 189.899733,87.2125867 C191.182933,89.1543467 192.026667,91.3536 192.370133,93.6558933 C192.805333,97.3565867 191.989333,101.096427 190.053333,104.279573 L190.053333,104.279573 Z" fill="#FFFFFF"></path>
    </g>
</svg>
